; HEADER_BLOCK_START
; generated by Creality_Print V7.0.0.4127 on 2026-01-13 at 15:33:09
; total layer number: 15
; filament_density: 1.24
; filament_diameter: 1.75
; max_z_height: 3.00
; creality_uuid: f92f78b3-6c11-41ed-9b5e-48151e07057f
; HEADER_BLOCK_END

; MINX = 12.50
; MINY = 10.00
; MINZ = 0.00
; MAXX = 207.50
; MAXY = 210.00
; MAXZ = 3.00

; multicolor_method = 0 
; THUMBNAIL_BLOCK_START

;
; THUMBNAIL_BLOCK_END

; THUMBNAIL_BLOCK_START

;
; THUMBNAIL_BLOCK_END

; external perimeters extrusion width = 0.42mm
; perimeters extrusion width = 0.45mm
; infill extrusion width = 0.45mm
; solid infill extrusion width = 0.42mm
; top infill extrusion width = 0.42mm
; first layer extrusion width = 0.50mm

; EXECUTABLE_BLOCK_START
EXCLUDE_OBJECT_DEFINE NAME=Skeleton.stl_id_0_copy_0 CENTER=110,110 POLYGON=[[12.5,10],[207.5,10],[207.5,210],[12.5,210],[12.5,10]]
M73 P0 R336
M106 S0
M106 P2 S0
; max_print_temp = 35,230
;TYPE:Custom
M141 S35;set chamber_temperature
START_PRINT EXTRUDER_TEMP=230 BED_TEMP=35
T0
M204 S2000
M104 S230
G1 Z3 F600
M83
G92 E0
G1 Z1 F600
G90
G21
M83 ; use relative distances for extrusion
G1 E-.4 F1800
G1 Z.2 F30000
M106 S0
;LAYER_CHANGE
;:0.2
;HEIGHT:0.2
;BEFORE_LAYER_CHANGE
;0.2
G92 E0
;TIME_ELAPSED:58.667061
;AFTER_LAYER_CHANGE
;0.2
;_SET_FAN_SPEED_CHANGING_LAYER
SET_VELOCITY_LIMIT ACCEL=1000 ACCEL_TO_DECEL=1000
SET_VELOCITY_LIMIT SQUARE_CORNER_VELOCITY=6
; OBJECT_ID: 278
; printing object Skeleton.stl id:0 copy 0
EXCLUDE_OBJECT_START NAME=Skeleton.stl_id_0_copy_0
G1 X46.143 Y209.143 Z.6 F30000
G1 Z.2
G1 E.4 F1800
;TYPE:Inner wall
;WIDTH:0.5
G1 F1969.022
G1 X13.357 Y209.143 E1.24607
G1 X13.357 Y10.857 E7.53612
G1 X46.643 Y10.857 E1.26507
G1 X46.643 Y209.143 E7.53612
G1 X46.183 Y209.143 E.01748
G1 X47.1 Y209.6 F30000
;TYPE:Outer wall
G1 F1969.022
G1 X12.9 Y209.6 E1.29982
G1 X12.9 Y10.4 E7.57086
G1 X47.1 Y10.4 E1.29982
G1 X47.1 Y209.56 E7.56934
G1 E-.4 F1800
G1 Z.6 F30000
G1 X45.58 Y10.994 Z.6
G1 Z.2
G1 E.4 F1800
;TYPE:Bottom surface
;WIDTH:0.500686
G1 F1966.07
G1 X46.3 Y11.714 E.03874
G1 X46.3 Y12.361 E.02464
G1 X45.139 Y11.2 E.06252
G1 X44.491 Y11.2 E.02464
G1 X46.3 Y13.009 E.09737
G1 X46.3 Y13.656 E.02464
G1 X43.844 Y11.2 E.13222
G1 X43.197 Y11.2 E.02464
G1 X46.3 Y14.303 E.16706
G1 X46.3 Y14.951 E.02464
G1 X42.549 Y11.2 E.20191
G1 X41.902 Y11.2 E.02464
G1 X46.3 Y15.598 E.23676
G1 X46.3 Y16.246 E.02464
G1 X41.254 Y11.2 E.27161
G1 X40.607 Y11.2 E.02464
G1 X46.3 Y16.893 E.30646
G1 X46.3 Y17.54 E.02464
G1 X39.96 Y11.2 E.34131
G1 X39.312 Y11.2 E.02464
G1 X46.3 Y18.188 E.37615
G1 X46.3 Y18.835 E.02464
G1 X38.665 Y11.2 E.411
G1 X38.018 Y11.2 E.02464
G1 X46.3 Y19.482 E.44585
G1 X46.3 Y20.13 E.02464
G1 X37.37 Y11.2 E.4807
G1 X36.723 Y11.2 E.02464
G1 X46.3 Y20.777 E.51555
G1 X46.3 Y21.425 E.02464
G1 X36.075 Y11.2 E.5504
G1 X35.428 Y11.2 E.02464
G1 X46.3 Y22.072 E.58524
G1 X46.3 Y22.719 E.02464
G1 X34.781 Y11.2 E.62009
G1 X34.133 Y11.2 E.02464
G1 X46.3 Y23.367 E.65494
G1 X46.3 Y24.014 E.02464
G1 X33.486 Y11.2 E.68979
G1 X32.838 Y11.2 E.02464
G1 X46.3 Y24.662 E.72464
G1 X46.3 Y25.309 E.02464
G1 X32.191 Y11.2 E.75949
G1 X31.544 Y11.2 E.02464
G1 X46.3 Y25.956 E.79433
G1 X46.3 Y26.604 E.02464
G1 X30.896 Y11.2 E.82918
G1 X30.249 Y11.2 E.02464
G1 X46.3 Y27.251 E.86403
G1 X46.3 Y27.898 E.02464
G1 X29.602 Y11.2 E.89888
G1 X28.954 Y11.2 E.02464
G1 X46.3 Y28.546 E.93373
G1 X46.3 Y29.193 E.02464
G1 X28.307 Y11.2 E.96857
G1 X27.659 Y11.2 E.02464
G1 X46.3 Y29.841 E1.00342
G1 X46.3 Y30.488 E.02464
G1 X27.012 Y11.2 E1.03827
G1 X26.365 Y11.2 E.02464
G1 X46.3 Y31.135 E1.07312
G1 X46.3 Y31.783 E.02464
G1 X25.717 Y11.2 E1.10797
G1 X25.07 Y11.2 E.02464
G1 X46.3 Y32.43 E1.14282
G1 X46.3 Y33.077 E.02464
G1 X24.423 Y11.2 E1.17766
G1 X23.775 Y11.2 E.02464
G1 X46.3 Y33.725 E1.21251
G1 X46.3 Y34.372 E.02464
G1 X23.128 Y11.2 E1.24736
G1 X22.48 Y11.2 E.02464
G1 X46.3 Y35.02 E1.28221
G1 X46.3 Y35.667 E.02464
G1 X21.833 Y11.2 E1.31706
G1 X21.186 Y11.2 E.02464
G1 X46.3 Y36.314 E1.35191
G1 X46.3 Y36.962 E.02464
G1 X20.538 Y11.2 E1.38675
G1 X19.891 Y11.2 E.02464
G1 X46.3 Y37.609 E1.4216
G1 X46.3 Y38.256 E.02464
G1 X19.244 Y11.2 E1.45645
G1 X18.596 Y11.2 E.02464
G1 X46.3 Y38.904 E1.4913
M73 P0 R335
G1 X46.3 Y39.551 E.02464
G1 X17.949 Y11.2 E1.52615
G1 X17.301 Y11.2 E.02464
G1 X46.3 Y40.199 E1.561
G1 X46.3 Y40.846 E.02464
G1 X16.654 Y11.2 E1.59584
G1 X16.007 Y11.2 E.02464
G1 X46.3 Y41.493 E1.63069
G1 X46.3 Y42.141 E.02464
G1 X15.359 Y11.2 E1.66554
G1 X14.712 Y11.2 E.02464
G1 X46.3 Y42.788 E1.70039
G1 X46.3 Y43.435 E.02464
G1 X14.065 Y11.2 E1.73524
G1 X13.7 Y11.2 E.01388
G1 X13.7 Y11.483 E.01076
G1 X46.3 Y44.083 E1.75486
G1 X46.3 Y44.73 E.02464
G1 X13.7 Y12.13 E1.75486
G1 X13.7 Y12.777 E.02464
G1 X46.3 Y45.378 E1.75486
G1 X46.3 Y46.025 E.02464
G1 X13.7 Y13.425 E1.75486
G1 X13.7 Y14.072 E.02464
G1 X46.3 Y46.672 E1.75486
G1 X46.3 Y47.32 E.02464
G1 X13.7 Y14.72 E1.75486
G1 X13.7 Y15.367 E.02464
G1 X46.3 Y47.967 E1.75486
G1 X46.3 Y48.615 E.02464
G1 X13.7 Y16.014 E1.75486
G1 X13.7 Y16.662 E.02464
G1 X46.3 Y49.262 E1.75486
G1 X46.3 Y49.909 E.02464
G1 X13.7 Y17.309 E1.75486
G1 X13.7 Y17.956 E.02464
G1 X46.3 Y50.557 E1.75486
G1 X46.3 Y51.204 E.02464
G1 X13.7 Y18.604 E1.75486
G1 X13.7 Y19.251 E.02464
G1 X46.3 Y51.851 E1.75486
G1 X46.3 Y52.499 E.02464
G1 X13.7 Y19.899 E1.75486
G1 X13.7 Y20.546 E.02464
G1 X46.3 Y53.146 E1.75486
G1 X46.3 Y53.794 E.02464
G1 X13.7 Y21.193 E1.75486
G1 X13.7 Y21.841 E.02464
G1 X46.3 Y54.441 E1.75486
G1 X46.3 Y55.088 E.02464
G1 X13.7 Y22.488 E1.75486
G1 X13.7 Y23.135 E.02464
G1 X46.3 Y55.736 E1.75486
G1 X46.3 Y56.383 E.02464
G1 X13.7 Y23.783 E1.75486
G1 X13.7 Y24.43 E.02464
G1 X46.3 Y57.03 E1.75486
G1 X46.3 Y57.678 E.02464
G1 X13.7 Y25.078 E1.75486
G1 X13.7 Y25.725 E.02464
G1 X46.3 Y58.325 E1.75486
G1 X46.3 Y58.973 E.02464
G1 X13.7 Y26.372 E1.75486
G1 X13.7 Y27.02 E.02464
G1 X46.3 Y59.62 E1.75486
G1 X46.3 Y60.267 E.02464
G1 X13.7 Y27.667 E1.75486
G1 X13.7 Y28.314 E.02464
G1 X46.3 Y60.915 E1.75486
G1 X46.3 Y61.562 E.02464
G1 X13.7 Y28.962 E1.75486
G1 X13.7 Y29.609 E.02464
G1 X46.3 Y62.209 E1.75486
G1 X46.3 Y62.857 E.02464
G1 X13.7 Y30.257 E1.75486
G1 X13.7 Y30.904 E.02464
G1 X46.3 Y63.504 E1.75486
G1 X46.3 Y64.152 E.02464
G1 X13.7 Y31.551 E1.75486
G1 X13.7 Y32.199 E.02464
G1 X46.3 Y64.799 E1.75486
G1 X46.3 Y65.446 E.02464
G1 X13.7 Y32.846 E1.75486
M73 P0 R334
G1 X13.7 Y33.493 E.02464
G1 X46.3 Y66.094 E1.75486
G1 X46.3 Y66.741 E.02464
G1 X13.7 Y34.141 E1.75486
G1 X13.7 Y34.788 E.02464
G1 X46.3 Y67.389 E1.75486
G1 X46.3 Y68.036 E.02464
G1 X13.7 Y35.436 E1.75486
G1 X13.7 Y36.083 E.02464
G1 X46.3 Y68.683 E1.75486
G1 X46.3 Y69.331 E.02464
G1 X13.7 Y36.73 E1.75486
G1 X13.7 Y37.378 E.02464
G1 X46.3 Y69.978 E1.75486
G1 X46.3 Y70.625 E.02464
G1 X13.7 Y38.025 E1.75486
G1 X13.7 Y38.673 E.02464
G1 X46.3 Y71.273 E1.75486
G1 X46.3 Y71.92 E.02464
G1 X13.7 Y39.32 E1.75486
G1 X13.7 Y39.967 E.02464
G1 X46.3 Y72.568 E1.75486
G1 X46.3 Y73.215 E.02464
G1 X13.7 Y40.615 E1.75486
G1 X13.7 Y41.262 E.02464
G1 X46.3 Y73.862 E1.75486
G1 X46.3 Y74.51 E.02464
G1 X13.7 Y41.909 E1.75486
G1 X13.7 Y42.557 E.02464
G1 X46.3 Y75.157 E1.75486
G1 X46.3 Y75.804 E.02464
G1 X13.7 Y43.204 E1.75486
G1 X13.7 Y43.852 E.02464
G1 X46.3 Y76.452 E1.75486
G1 X46.3 Y77.099 E.02464
G1 X13.7 Y44.499 E1.75486
G1 X13.7 Y45.146 E.02464
G1 X46.3 Y77.747 E1.75486
G1 X46.3 Y78.394 E.02464
G1 X13.7 Y45.794 E1.75486
G1 X13.7 Y46.441 E.02464
G1 X46.3 Y79.041 E1.75486
G1 X46.3 Y79.689 E.02464
G1 X13.7 Y47.088 E1.75486
G1 X13.7 Y47.736 E.02464
G1 X46.3 Y80.336 E1.75486
G1 X46.3 Y80.983 E.02464
G1 X13.7 Y48.383 E1.75486
G1 X13.7 Y49.031 E.02464
G1 X46.3 Y81.631 E1.75486
G1 X46.3 Y82.278 E.02464
G1 X13.7 Y49.678 E1.75486
G1 X13.7 Y50.325 E.02464
G1 X46.3 Y82.926 E1.75486
G1 X46.3 Y83.573 E.02464
G1 X13.7 Y50.973 E1.75486
G1 X13.7 Y51.62 E.02464
G1 X46.3 Y84.22 E1.75486
G1 X46.3 Y84.868 E.02464
G1 X13.7 Y52.267 E1.75486
G1 X13.7 Y52.915 E.02464
G1 X46.3 Y85.515 E1.75486
G1 X46.3 Y86.162 E.02464
G1 X13.7 Y53.562 E1.75486
G1 X13.7 Y54.21 E.02464
G1 X46.3 Y86.81 E1.75486
G1 X46.3 Y87.457 E.02464
G1 X13.7 Y54.857 E1.75486
G1 X13.7 Y55.504 E.02464
G1 X46.3 Y88.105 E1.75486
G1 X46.3 Y88.752 E.02464
G1 X13.7 Y56.152 E1.75486
G1 X13.7 Y56.799 E.02464
G1 X46.3 Y89.399 E1.75486
G1 X46.3 Y90.047 E.02464
G1 X13.7 Y57.447 E1.75486
G1 X13.7 Y58.094 E.02464
G1 X46.3 Y90.694 E1.75486
G1 X46.3 Y91.342 E.02464
G1 X13.7 Y58.741 E1.75486
G1 X13.7 Y59.389 E.02464
G1 X46.3 Y91.989 E1.75486
M73 P0 R333
G1 X46.3 Y92.636 E.02464
G1 X13.7 Y60.036 E1.75486
G1 X13.7 Y60.683 E.02464
G1 X46.3 Y93.284 E1.75486
G1 X46.3 Y93.931 E.02464
G1 X13.7 Y61.331 E1.75486
G1 X13.7 Y61.978 E.02464
G1 X46.3 Y94.578 E1.75486
G1 X46.3 Y95.226 E.02464
G1 X13.7 Y62.626 E1.75486
G1 X13.7 Y63.273 E.02464
G1 X46.3 Y95.873 E1.75486
G1 X46.3 Y96.521 E.02464
G1 X13.7 Y63.92 E1.75486
G1 X13.7 Y64.568 E.02464
G1 X46.3 Y97.168 E1.75486
G1 X46.3 Y97.815 E.02464
G1 X13.7 Y65.215 E1.75486
G1 X13.7 Y65.862 E.02464
G1 X46.3 Y98.463 E1.75486
G1 X46.3 Y99.11 E.02464
G1 X13.7 Y66.51 E1.75486
G1 X13.7 Y67.157 E.02464
G1 X46.3 Y99.757 E1.75486
G1 X46.3 Y100.405 E.02464
G1 X13.7 Y67.805 E1.75486
G1 X13.7 Y68.452 E.02464
G1 X46.3 Y101.052 E1.75486
G1 X46.3 Y101.7 E.02464
G1 X13.7 Y69.099 E1.75486
M73 P1 R333
G1 X13.7 Y69.747 E.02464
G1 X46.3 Y102.347 E1.75486
G1 X46.3 Y102.994 E.02464
G1 X13.7 Y70.394 E1.75486
G1 X13.7 Y71.041 E.02464
G1 X46.3 Y103.642 E1.75486
G1 X46.3 Y104.289 E.02464
G1 X13.7 Y71.689 E1.75486
G1 X13.7 Y72.336 E.02464
G1 X46.3 Y104.936 E1.75486
G1 X46.3 Y105.584 E.02464
G1 X13.7 Y72.984 E1.75486
G1 X13.7 Y73.631 E.02464
G1 X46.3 Y106.231 E1.75486
G1 X46.3 Y106.879 E.02464
G1 X13.7 Y74.278 E1.75486
G1 X13.7 Y74.926 E.02464
G1 X46.3 Y107.526 E1.75486
G1 X46.3 Y108.173 E.02464
G1 X13.7 Y75.573 E1.75486
G1 X13.7 Y76.22 E.02464
G1 X46.3 Y108.821 E1.75486
G1 X46.3 Y109.468 E.02464
G1 X13.7 Y76.868 E1.75486
G1 X13.7 Y77.515 E.02464
G1 X46.3 Y110.116 E1.75486
G1 X46.3 Y110.763 E.02464
G1 X13.7 Y78.163 E1.75486
G1 X13.7 Y78.81 E.02464
G1 X46.3 Y111.41 E1.75486
G1 X46.3 Y112.058 E.02464
G1 X13.7 Y79.457 E1.75486
G1 X13.7 Y80.105 E.02464
G1 X46.3 Y112.705 E1.75486
G1 X46.3 Y113.352 E.02464
G1 X13.7 Y80.752 E1.75486
G1 X13.7 Y81.4 E.02464
G1 X46.3 Y114 E1.75486
G1 X46.3 Y114.647 E.02464
G1 X13.7 Y82.047 E1.75486
G1 X13.7 Y82.694 E.02464
G1 X46.3 Y115.295 E1.75486
G1 X46.3 Y115.942 E.02464
G1 X13.7 Y83.342 E1.75486
G1 X13.7 Y83.989 E.02464
G1 X46.3 Y116.589 E1.75486
G1 X46.3 Y117.237 E.02464
G1 X13.7 Y84.636 E1.75486
G1 X13.7 Y85.284 E.02464
G1 X46.3 Y117.884 E1.75486
M73 P1 R332
G1 X46.3 Y118.531 E.02464
G1 X13.7 Y85.931 E1.75486
G1 X13.7 Y86.579 E.02464
G1 X46.3 Y119.179 E1.75486
G1 X46.3 Y119.826 E.02464
G1 X13.7 Y87.226 E1.75486
G1 X13.7 Y87.873 E.02464
G1 X46.3 Y120.474 E1.75486
G1 X46.3 Y121.121 E.02464
G1 X13.7 Y88.521 E1.75486
G1 X13.7 Y89.168 E.02464
G1 X46.3 Y121.768 E1.75486
G1 X46.3 Y122.416 E.02464
G1 X13.7 Y89.815 E1.75486
G1 X13.7 Y90.463 E.02464
G1 X46.3 Y123.063 E1.75486
G1 X46.3 Y123.71 E.02464
G1 X13.7 Y91.11 E1.75486
G1 X13.7 Y91.758 E.02464
G1 X46.3 Y124.358 E1.75486
G1 X46.3 Y125.005 E.02464
G1 X13.7 Y92.405 E1.75486
G1 X13.7 Y93.052 E.02464
G1 X46.3 Y125.653 E1.75486
G1 X46.3 Y126.3 E.02464
G1 X13.7 Y93.7 E1.75486
G1 X13.7 Y94.347 E.02464
G1 X46.3 Y126.947 E1.75486
G1 X46.3 Y127.595 E.02464
G1 X13.7 Y94.994 E1.75486
G1 X13.7 Y95.642 E.02464
G1 X46.3 Y128.242 E1.75486
G1 X46.3 Y128.89 E.02464
G1 X13.7 Y96.289 E1.75486
G1 X13.7 Y96.937 E.02464
G1 X46.3 Y129.537 E1.75486
G1 X46.3 Y130.184 E.02464
G1 X13.7 Y97.584 E1.75486
G1 X13.7 Y98.231 E.02464
G1 X46.3 Y130.832 E1.75486
G1 X46.3 Y131.479 E.02464
G1 X13.7 Y98.879 E1.75486
G1 X13.7 Y99.526 E.02464
G1 X46.3 Y132.126 E1.75486
G1 X46.3 Y132.774 E.02464
G1 X13.7 Y100.174 E1.75486
G1 X13.7 Y100.821 E.02464
G1 X46.3 Y133.421 E1.75486
G1 X46.3 Y134.069 E.02464
G1 X13.7 Y101.468 E1.75486
G1 X13.7 Y102.116 E.02464
G1 X46.3 Y134.716 E1.75486
G1 X46.3 Y135.363 E.02464
G1 X13.7 Y102.763 E1.75486
G1 X13.7 Y103.41 E.02464
G1 X46.3 Y136.011 E1.75486
G1 X46.3 Y136.658 E.02464
G1 X13.7 Y104.058 E1.75486
G1 X13.7 Y104.705 E.02464
G1 X46.3 Y137.305 E1.75486
G1 X46.3 Y137.953 E.02464
G1 X13.7 Y105.353 E1.75486
G1 X13.7 Y106 E.02464
G1 X46.3 Y138.6 E1.75486
G1 X46.3 Y139.248 E.02464
G1 X13.7 Y106.647 E1.75486
G1 X13.7 Y107.295 E.02464
G1 X46.3 Y139.895 E1.75486
G1 X46.3 Y140.542 E.02464
G1 X13.7 Y107.942 E1.75486
G1 X13.7 Y108.589 E.02464
G1 X46.3 Y141.19 E1.75486
G1 X46.3 Y141.837 E.02464
G1 X13.7 Y109.237 E1.75486
G1 X13.7 Y109.884 E.02464
G1 X46.3 Y142.484 E1.75486
G1 X46.3 Y143.132 E.02464
G1 X13.7 Y110.532 E1.75486
G1 X13.7 Y111.179 E.02464
G1 X46.3 Y143.779 E1.75486
G1 X46.3 Y144.427 E.02464
G1 X13.7 Y111.826 E1.75486
M73 P1 R331
G1 X13.7 Y112.474 E.02464
G1 X46.3 Y145.074 E1.75486
G1 X46.3 Y145.721 E.02464
G1 X13.7 Y113.121 E1.75486
G1 X13.7 Y113.768 E.02464
G1 X46.3 Y146.369 E1.75486
G1 X46.3 Y147.016 E.02464
G1 X13.7 Y114.416 E1.75486
G1 X13.7 Y115.063 E.02464
G1 X46.3 Y147.663 E1.75486
G1 X46.3 Y148.311 E.02464
G1 X13.7 Y115.711 E1.75486
G1 X13.7 Y116.358 E.02464
G1 X46.3 Y148.958 E1.75486
G1 X46.3 Y149.606 E.02464
G1 X13.7 Y117.005 E1.75486
G1 X13.7 Y117.653 E.02464
G1 X46.3 Y150.253 E1.75486
G1 X46.3 Y150.9 E.02464
G1 X13.7 Y118.3 E1.75486
G1 X13.7 Y118.948 E.02464
G1 X46.3 Y151.548 E1.75486
G1 X46.3 Y152.195 E.02464
G1 X13.7 Y119.595 E1.75486
G1 X13.7 Y120.242 E.02464
G1 X46.3 Y152.843 E1.75486
G1 X46.3 Y153.49 E.02464
G1 X13.7 Y120.89 E1.75486
G1 X13.7 Y121.537 E.02464
G1 X46.3 Y154.137 E1.75486
G1 X46.3 Y154.785 E.02464
G1 X13.7 Y122.184 E1.75486
G1 X13.7 Y122.832 E.02464
G1 X46.3 Y155.432 E1.75486
G1 X46.3 Y156.079 E.02464
G1 X13.7 Y123.479 E1.75486
G1 X13.7 Y124.127 E.02464
G1 X46.3 Y156.727 E1.75486
G1 X46.3 Y157.374 E.02464
G1 X13.7 Y124.774 E1.75486
G1 X13.7 Y125.421 E.02464
G1 X46.3 Y158.022 E1.75486
G1 X46.3 Y158.669 E.02464
G1 X13.7 Y126.069 E1.75486
G1 X13.7 Y126.716 E.02464
G1 X46.3 Y159.316 E1.75486
G1 X46.3 Y159.964 E.02464
G1 X13.7 Y127.363 E1.75486
G1 X13.7 Y128.011 E.02464
G1 X46.3 Y160.611 E1.75486
G1 X46.3 Y161.258 E.02464
G1 X13.7 Y128.658 E1.75486
G1 X13.7 Y129.306 E.02464
G1 X46.3 Y161.906 E1.75486
G1 X46.3 Y162.553 E.02464
G1 X13.7 Y129.953 E1.75486
G1 X13.7 Y130.6 E.02464
G1 X46.3 Y163.201 E1.75486
G1 X46.3 Y163.848 E.02464
G1 X13.7 Y131.248 E1.75486
G1 X13.7 Y131.895 E.02464
G1 X46.3 Y164.495 E1.75486
G1 X46.3 Y165.143 E.02464
G1 X13.7 Y132.542 E1.75486
G1 X13.7 Y133.19 E.02464
G1 X46.3 Y165.79 E1.75486
G1 X46.3 Y166.437 E.02464
G1 X13.7 Y133.837 E1.75486
G1 X13.7 Y134.485 E.02464
G1 X46.3 Y167.085 E1.75486
G1 X46.3 Y167.732 E.02464
G1 X13.7 Y135.132 E1.75486
G1 X13.7 Y135.779 E.02464
G1 X46.3 Y168.38 E1.75486
G1 X46.3 Y169.027 E.02464
G1 X13.7 Y136.427 E1.75486
G1 X13.7 Y137.074 E.02464
G1 X46.3 Y169.674 E1.75486
G1 X46.3 Y170.322 E.02464
G1 X13.7 Y137.721 E1.75486
M73 P1 R330
G1 X13.7 Y138.369 E.02464
G1 X46.3 Y170.969 E1.75486
G1 X46.3 Y171.617 E.02464
G1 X13.7 Y139.016 E1.75486
G1 X13.7 Y139.664 E.02464
G1 X46.3 Y172.264 E1.75486
G1 X46.3 Y172.911 E.02464
G1 X13.7 Y140.311 E1.75486
G1 X13.7 Y140.958 E.02464
G1 X46.3 Y173.559 E1.75486
G1 X46.3 Y174.206 E.02464
G1 X13.7 Y141.606 E1.75486
G1 X13.7 Y142.253 E.02464
G1 X46.3 Y174.853 E1.75486
G1 X46.3 Y175.501 E.02464
G1 X13.7 Y142.901 E1.75486
G1 X13.7 Y143.548 E.02464
G1 X46.3 Y176.148 E1.75486
G1 X46.3 Y176.796 E.02464
G1 X13.7 Y144.195 E1.75486
G1 X13.7 Y144.843 E.02464
G1 X46.3 Y177.443 E1.75486
G1 X46.3 Y178.09 E.02464
G1 X13.7 Y145.49 E1.75486
G1 X13.7 Y146.137 E.02464
G1 X46.3 Y178.738 E1.75486
G1 X46.3 Y179.385 E.02464
G1 X13.7 Y146.785 E1.75486
G1 X13.7 Y147.432 E.02464
G1 X46.3 Y180.032 E1.75486
G1 X46.3 Y180.68 E.02464
G1 X13.7 Y148.08 E1.75486
G1 X13.7 Y148.727 E.02464
G1 X46.3 Y181.327 E1.75486
G1 X46.3 Y181.975 E.02464
G1 X13.7 Y149.374 E1.75486
G1 X13.7 Y150.022 E.02464
G1 X46.3 Y182.622 E1.75486
G1 X46.3 Y183.269 E.02464
G1 X13.7 Y150.669 E1.75486
G1 X13.7 Y151.316 E.02464
G1 X46.3 Y183.917 E1.75486
G1 X46.3 Y184.564 E.02464
G1 X13.7 Y151.964 E1.75486
G1 X13.7 Y152.611 E.02464
G1 X46.3 Y185.211 E1.75486
G1 X46.3 Y185.859 E.02464
G1 X13.7 Y153.259 E1.75486
